src/parts/clothes/BlazerSweater.svg

<svg>
  <g
    id="Clothing/Blazer-+-Sweater"
    transform="translate(0.000000, 170.000000)"
  >
    <defs>
      <path
        id="BlazerSweater-path1"
        d="M105.192402,29.0517235 L104,29.0517235 L104,29.0517235 C64.235498,29.0517235 32,61.2872215 32,101.051724 L32,110 L232,110 L232,101.051724 C232,61.2872215 199.764502,29.0517235 160,29.0517235 L160,29.0517235 L158.807598,29.0517235 C158.934638,30.0353144 159,31.0364513 159,32.0517235 C159,45.8588423 146.911688,57.0517235 132,57.0517235 C117.088312,57.0517235 105,45.8588423 105,32.0517235 C105,31.0364513 105.065362,30.0353144 105.192402,29.0517235 Z"
      />
    </defs>

    <mask
      id="BlazerSweater-mask1"
      fill="white"
    >
      <use href="#BlazerSweater-path1" />
    </mask>

    <use
      class="CustomColor"
      fill="#E6E6E6"
      fillRule="evenodd"
      href="#BlazerSweater-path1"
    />

    <g
      id="Color/Palette/Black"
      mask="url('#BlazerSweater-mask1')"
      fillRule="evenodd"
      fill="#262E33"
    >
      <rect
        id="Color"
        x="0"
        y="0"
        width="264"
        height="110"
      />
    </g>

    <g
      id="Blazer"
      strokeWidth="1"
      fillRule="evenodd"
      transform="translate(32.000000, 28.000000)"
    >
      <path
        id="Saco"
        d="M68.784807,1.12222847 C30.512317,2.80409739 1.24427139e-14,34.3646437 0,73.0517235 L0,82 L69.3616767,82 C65.9607412,69.9199941 64,55.7087296 64,40.5 C64,26.1729736 65.7399891,12.7311115 68.784807,1.12222847 Z M131.638323,82 L200,82 L200,73.0517235 C200,34.7067641 170.024954,3.36285166 132.228719,1.17384225 C135.265163,12.7709464 137,26.1942016 137,40.5 C137,55.7087296 135.039259,69.9199941 131.638323,82 Z"
        fill="#3A4C5A"
      />
      <path
        id="Pocket-hanky"
        d="M149,58 L158.555853,50.83311 L158.555853,50.83311 C159.998897,49.7508275 161.987779,49.7682725 163.411616,50.8757011 L170,56 L149,58 Z"
        fill="#E6E6E6"
      />
      <path
        id="Wing"
        d="M69,1.13686838e-13 C65,19.3333333 66.6666667,46.6666667 74,82 L58,82 L44,46 L50,37 L44,31 L63,1 C65.027659,0.369238637 67.027659,0.0359053037 69,1.13686838e-13 Z"
        fill="#2F4351"
      />
      <path
        id="Wing"
        d="M151,1.13686838e-13 C147,19.3333333 148.666667,46.6666667 156,82 L140,82 L126,46 L132,37 L126,31 L145,1 C147.027659,0.369238637 149.027659,0.0359053037 151,1.13686838e-13 Z"
        fill="#2F4351"
        transform="translate(141.000000, 41.000000) scale(-1, 1) translate(-141.000000, -41.000000) "
      />
    </g>

    <path
      id="Collar"
      d="M156,21.5390062 C162.772319,26.1359565 167,32.6563196 167,39.8878801 C167,47.2887711 162.572015,53.9447688 155.520105,58.5564942 L149.57933,53.8764929 L145,54.207887 L146,51.0567821 L145.922229,50.995516 C152.022491,47.8530505 156,42.7003578 156,36.8768102 L156,21.5390062 Z M108,21.5390062 C101.227681,26.1359565 97,32.6563196 97,39.8878801 C97,47.2887711 101.427985,53.9447688 108.479895,58.5564942 L114.42067,53.8764929 L119,54.207887 L118,51.0567821 L118.077771,50.995516 C111.977509,47.8530505 108,42.7003578 108,36.8768102 L108,21.5390062 Z"
      fill="#F2F2F2"
      fillRule="evenodd"
    />
  </g>
</svg>

<svg>
  <g id="Clothing/Blazer-+-Sweater" transform="translate(0 170)">
    <defs>
      <path id="BlazerSweater-path1" d="M105.192 29.052H104c-39.765 0-72 32.235-72 72V110h200v-8.948c0-39.765-32.235-72-72-72h-1.192c.127.983.192 1.984.192 3 0 13.807-12.088 25-27 25s-27-11.193-27-25c0-1.016.065-2.017.192-3Z"/>
    </defs>
    <mask id="BlazerSweater-mask1" fill="#fff">
      <use href="#BlazerSweater-path1"/>
    </mask>
    <use fill="#E6E6E6" class="CustomColor" href="#BlazerSweater-path1"/>
    <g id="Color/Palette/Black" fill="#262E33" mask="url('#BlazerSweater-mask1')">
      <path id="Color" d="M0 0h264v110H0z"/>
    </g>
    <g id="Blazer" transform="translate(32 28)">
      <path id="Saco" fill="#3A4C5A" d="M68.785 1.122C30.512 2.804 0 34.365 0 73.052V82h69.362C65.96 69.92 64 55.709 64 40.5c0-14.327 1.74-27.769 4.785-39.378ZM131.638 82H200v-8.948c0-38.345-29.975-69.69-67.771-71.878C135.265 12.77 137 26.194 137 40.5c0 15.209-1.96 29.42-5.362 41.5Z"/>
      <path id="Pocket-hanky" fill="#E6E6E6" d="m149 58 9.556-7.167a4 4 0 0 1 4.856.043L170 56l-21 2Z"/>
      <path id="Wing" fill="#2F4351" d="M69 0c-4 19.333-2.333 46.667 5 82H58L44 46l6-9-6-6L63 1c2.028-.63 4.028-.964 6-1Z"/>
      <path id="Wing" fill="#2F4351" d="M151 0c-4 19.333-2.333 46.667 5 82h-16l-14-36 6-9-6-6 19-30c2.028-.63 4.028-.964 6-1Z" transform="matrix(-1 0 0 1 282 0)"/>
    </g>
    <path id="Collar" fill="#F2F2F2" d="M156 21.539c6.772 4.597 11 11.117 11 18.349 0 7.4-4.428 14.057-11.48 18.668l-5.94-4.68-4.58.332 1-3.151-.078-.061C152.022 47.853 156 42.7 156 36.876V21.54Zm-48 0c-6.772 4.597-11 11.117-11 18.349 0 7.4 4.428 14.057 11.48 18.668l5.94-4.68 4.58.332-1-3.151.078-.061C111.978 47.853 108 42.7 108 36.876V21.54Z"/>
  </g>
</svg>
